X: 72
T:In the Beginning
M:6/8
L:1/8
Q:100
S:Michael Raven (Hynde Horn)
A:Wales
Z:brian_martin12345@yahoo.com
K:Gm
GGd =BBA|G2A=B2d|=BBGd2=e|=BG2-G3:||
dddd2d|f2dc2d|A2FG2A|FD2-D3:||
dcB BAG|ccB cdd|dcB BAG|ccBcde|dBG ecd|BG2-G3:||
